!!!COA: des Prez, Josquin
!!!CDT: ~1450-1521/08/27
!!!OTL: Scimus quoniam diligentibus / De tous biens plaine / Per omnia secula
!!!AGN: Motet
!!!SCT: NJE 20.12
!!!SCA: New Josquin Edition 20.12
!!!voices: 4
!!!COM: des Prez, Josquin ?
!!!OTL: Jos2012-Scimus_quoniam_diligentibus__De_tous_biens_plaine__Per_omnia_secula
**kern	**kern	**kern	**kern
*part4	*part3	*part2	*part1
*staff4	*staff3	*staff2	*staff1
*Ivox	*Ivox	*Ivox	*Ivox
*I"Bassus	*I"Tenor	*I"Altus	*I"Superius
*I'B	*I'T	*I'A	*I'S
*clefF4	*clefGv2	*clefGv2	*clefG2
*k[b-]	*k[b-]	*k[b-]	*k[b-]
*d:	*d:	*d:	*d:
*M2/1	*M2/1	*M2/1	*M2/1
*met(C|)	*met(C|)	*met(C|)	*met(C|)
=1	=1	=1	=1
!	!LO:TX:Z=8:t=T&colon; Per omnia secula seculorum	!	!LO:TX:Z=12:t=S=S of Hayne's "De tous biens plaine"
[0GG	0r	1.G	0g
.	.	2A	.
=2	=2	=2	=2
1GG]	0D	2.B-	1.g
.	.	4c	.
[1BB-	.	[1d	.
.	.	.	4f
.	.	.	4e
=3	=3	=3	=3
2BB-]	1F	1d]	1d
4C	.	.	.
4D	.	.	.
[1E-Xi	1G	1B-	[1g
=4	=4	=4	=4
1E-]	1G	1c	1g]
1D	1A	1d	1f#Xi
=5	=5	=5	=5
2GG	2G	1e-X	1g
1C	1G	.	.
.	.	1d	1g
2BB-	[2G	.	.
=6	=6	=6	=6
1C	2G]	1c	2g
.	2E	.	2g
1AA	1F#Xi	2r	1a
.	.	2c	.
=7	=7	=7	=7
1GG	1G	4B-	2b-
.	.	4c	.
.	.	4d	2b-
.	.	4e	.
1D	1r	2f	2a
.	.	[2d	2f
=8	=8	=8	=8
1E-Xi	1G	2d]	1g
.	.	2c	.
2D	[1A	2d	[1f
4C	.	2A	.
4BB-	.	.	.
=9	=9	=9	=9
2AA	1A]	2.c	1f]
2FF	.	.	.
.	.	4d	.
1C	1G	1e-X	2g
.	.	.	2f
=10	=10	=10	=10
2r	1r	1c	1e
2AA	.	.	.
2BB-	1r	2d	[1d
[2GG	.	[2B-	.
=11	=11	=11	=11
4GG]	1G	4B-]	1d]
4AA	.	4c	.
4BB-	.	2.d	.
4C	.	.	.
2.D	1r	.	2f
.	.	4c	.
.	.	4B-	2g
4C	.	4A	.
=12	=12	=12	=12
1AA	1F	1c	1a
!	!	!LO:TX:Z=8:t=mm. 12 note 2, A&colon; Sb 2-Sm Mi Sb	!
1GG	1G	[1B-	[1b-
=13	=13	=13	=13
2r	1G	2B-]	2b-]
2.C	.	4c	4a
.	.	4d	4g
.	1G	2e-X	[1g
4D	.	.	.
2E-Xi	.	2c	.
=14	=14	=14	=14
2D	0A	1d	1g]
2.F	.	.	.
.	.	1c	1f#Xi
4G	.	.	.
2A	.	.	.
=15	=15	=15	=15
2B-	0G	2d	0g
2.E-X	.	2.e-X	.
4F	.	4d	.
2G	.	4c	.
.	.	4B-	.
=16	=16	=16	=16
1D	1F	1A	1r
1GG	[1G	1B-	1g
=17	=17	=17	=17
2r	1G]	1G	1b-
2.GG	.	.	.
.	1G	2r	1b-
4AA	.	.	.
4BB-	.	[2d	.
4C	.	.	.
=18	=18	=18	=18
1D	0F	2d]	1a
.	.	4c	.
.	.	4B-	.
2r	.	2c	1a
2D	.	2d	.
=19	=19	=19	=19
2E-Xi	0G	2.B-	1g
4D	.	.	.
4C	.	4c	.
2BB-	.	2d	2g
2GG	.	4c	2g
.	.	4B-	.
=20	=20	=20	=20
1D	0F	1A	1.a
1D	.	1B-	.
.	.	.	4g
.	.	.	4f
=21	=21	=21	=21
0C	1G	0c	1e
.	1A	.	1e
=22	=22	=22	=22
1r	0B-	1.d	2d
.	.	.	1f
1BB-	.	.	.
.	.	2e	4e
.	.	.	4d
=23	=23	=23	=23
1F	1A	2f	1c
.	.	1c	.
1D	1F	.	1d
.	.	2B-	.
=24	=24	=24	=24
1.C	0G	2c	0e
.	.	4B-	.
.	.	4A	.
.	.	1G	.
4D	.	.	.
4E	.	.	.
=25	=25	=25	=25
2F	0A	1F	1c
2FF	.	.	.
2.AA	.	2r	1f
.	.	[2c	.
4BB-	.	.	.
=26	=26	=26	=26
2C	0G	2c]	2e
2.GG	.	2.B-	2d
.	.	.	[1d
4AA	.	4c	.
4BB-	.	4d	.
4C	.	4e	.
=27	=27	=27	=27
2D	1F	2f	1d]
2F	.	2d	.
1E	1G	1g	1c#Xi
=28	=28	=28	=28
1D	1A	2f	0d
.	.	1a	.
1GG	1B-	.	.
.	.	2g	.
=29	=29	=29	=29
1.D	0A	2a	1r
.	.	1f	.
.	.	.	2f
2E	.	4e	2g
.	.	4d	.
=30	=30	=30	=30
1.F	0r	1c	1.a
.	.	2A	.
4E	.	[2c	4g
4D	.	.	4f
=31	=31	=31	=31
1C	0G	2c]	1e
.	.	4B-	.
.	.	4A	.
1GG	.	2B-	[1d
.	.	[2G	.
=32	=32	=32	=32
1D	1A	2G]	1d]
.	.	2F#Xi	.
2GG	[1B-	1G	[1g
2G	.	.	.
=33	=33	=33	=33
2E-Xi	1B-]	1r	1g]
2G	.	.	.
1D	1A	1d	1f
=34	=34	=34	=34
2r	0G	1.B-	1.g
1GG	.	.	.
2AA	.	2c	4f
.	.	.	4e
=35	=35	=35	=35
2.BB-	0F	2.d	1d
4AA	.	4c	.
[1FF	.	[1A	[1c
=36	=36	=36	=36
2FF]	1F	2A]	1c]
1F	.	2F	.
.	1F	2A	1f
4E	.	2B-	.
4D	.	.	.
=37	=37	=37	=37
1C	1.G	1c	1e
2GG	.	2B-	[1d
[2D	2A	[2A	.
=38	=38	=38	=38
2D]	1B-	2A]	1d]
2E	.	2G	.
1F	1A	1A	1c
=39	=39	=39	=39
1D	1A	1F	1d
2r	1G	2G	1B-
2GG	.	[2g	.
=40	=40	=40	=40
1D	0A	2g]	0A
.	.	4f#Xi	.
.	.	4e	.
1D	.	1f#Xi	.
=41	=41	=41	=41
1GG	0B-	2g	0G
.	.	1d	.
2r	.	.	.
2GG	.	[2g	.
=42	=42	=42	=42
2D	1A	2g]	1r
4C	.	2f	.
4D	.	.	.
2.E-X	[1G	2.g	1G
4F	.	4f	.
=43	=43	=43	=43
2G	1G]	2d	2B-
4F	.	2e	2c
4E	.	.	.
1D	1F	2f	1d
.	.	2d	.
=44	=44	=44	=44
1AA	1r	1e	1c
1D	1F	2A	1f
.	.	2B-	.
=45	=45	=45	=45
1C	1G	1c	2e
.	.	.	2d
2BB-	1B-	1F	[1d
[2D	.	.	.
=46	=46	=46	=46
4D]	1A	2r	1d]
4E	.	.	.
2F	.	2f	.
1E	1G	2g	1c
.	.	2e	.
=47	=47	=47	=47
0D	1A	2.f	0d
.	.	4g	.
.	1A	2a	.
.	.	[2d	.
=48	=48	=48	=48
0GG	0B-	2d]	1r
.	.	1g	.
.	.	.	1d
.	.	4f	.
.	.	4e	.
=49	=49	=49	=49
1D	0A	1d	2f
.	.	.	2g
2r	.	2c	[1a
[2D	.	[2f	.
=50	=50	=50	=50
4D]	0r	2f]	1a]
4E	.	.	.
4F	.	4e	.
4G	.	4d	.
1A	.	2.c	1cc
.	.	4d	.
=51	=51	=51	=51
2r	0r	2e-X	2b-
1G	.	2d	1b-
.	.	2B-	.
4F	.	[2d	4a
4E	.	.	4g
=52	=52	=52	=52
1D	1r	4d]	1f
.	.	4c	.
.	.	4B-	.
.	.	4A	.
1GG	1G	1B-	1g
=53	=53	=53	=53
0D	1F	1A	1a
.	1F	2r	1f
.	.	2A	.
=54	=54	=54	=54
1r	1G	2.B-	2b-
.	.	.	2a
.	.	4c	.
1GG	1B-	[1d	1g
=55	=55	=55	=55
1D	0A	2d]	0f
.	.	4c	.
.	.	4B-	.
2AA	.	2c	.
2D	.	[2d	.
=56	=56	=56	=56
2BB-	1G	2d]	1b-
2GG	.	2e	.
1D	1A	2.f	1a
.	.	4e	.
=57	=57	=57	=57
1GG	1G	4g	1b-
.	.	4f	.
.	.	4e	.
.	.	4d	.
1C	1G	[1c	2cc
.	.	.	2b-
=58	=58	=58	=58
1FF	1A	2c]	2a
.	.	2d	2g
1GG	1B-	2e-Xi	[1g
.	.	[2d	.
=59	=59	=59	=59
0D	1A	2d]	1g]
.	.	4c	.
.	.	4B-	.
.	1A	2A	1f#Xi
.	.	[2d	.
=60	=60	=60	=60
1r	0G	4d]	0g
.	.	4c	.
!	!	!LO:TX:Z=8:t=MS&colon; 60A b-flat = minim	!
.	.	1B-	.
1GG	.	.	.
.	.	4A	.
.	.	4G	.
=61	=61	=61	=61
1D	1A	2.F#Xi	0r
.	.	4E	.
[1GG	[1B-	1G	.
=62	=62	=62	=62
2GG]	1B-]	1r	0g
2AA	.	.	.
1BB-	1G	1d	.
=63	=63	=63	=63
0C	0G	0e	1.g
.	.	.	4f
.	.	.	4e
=64	=64	=64	=64
1D	1F	1f	1d
2r	[1B-	2B-	[1g
[2E-Xi	.	[2e-X	.
=65	=65	=65	=65
4E-]	1B-]	2e-]	1g]
4F	.	.	.
2G	.	4d	.
.	.	4c	.
2D	1A	1d	1f
2F	.	.	.
=66	=66	=66	=66
2E-Xi	0G	1e-Xi	1g
4D	.	.	.
4C	.	.	.
2BB-	.	2d	1g
[2C	.	[2c	.
=67	=67	=67	=67
4C]	1E	4c]	1g
4D	.	4B-	.
2E	.	4A	.
.	.	4G	.
1D	1F	1d	1a
=68	=68	=68	=68
2GG	1G	2r	1b-
2G	.	2e	.
2D	1r	2f	2a
2F	.	[2d	2f
=69	=69	=69	=69
1E-Xi	1G	2d]	1g
.	.	2c	.
2D	[1A	2d	[1f
2AA	.	4c	.
.	.	4B-	.
=70	=70	=70	=70
1D	1A]	2A	1f]
.	.	2.d	.
2r	1B-	.	2g
.	.	4c	.
2D	.	2d	2f
=71	=71	=71	=71
2C	1c	2G	1e
2AA	.	2A	.
2BB-	[1B-	2F	[1d
2GG	.	[2B-	.
=72	=72	=72	=72
2.BB-	1B-]	4B-]	1d]
.	.	4c	.
.	.	1d	.
4C	.	.	.
2D	[1A	.	2f
2E	.	4c	2g
.	.	4B-	.
=73	=73	=73	=73
1F	1A]	2A	1a
.	.	2d	.
2G	[1G	1B-	[1b-
[2E-X	.	.	.
=74	=74	=74	=74
2E-]	2G]	2r	2b-]
2F	2A	2c	4a
.	.	.	4g
2G	1B-	2B-	[1g
2GG	.	[2d	.
=75	=75	=75	=75
2D	0A	2d]	1g]
2AA	.	4c	.
.	.	4B-	.
1D	.	1A	1f#Xi
=76	=76	=76	=76
2r	1r	1G	0g
2.E-X	.	.	.
.	1G	1B-	.
4D	.	.	.
4C	.	.	.
4BB-	.	.	.
=77	=77	=77	=77
1AA	1A	1c	1r
1GG	[1B-	[1d	2g
.	.	.	2g
=78	=78	=78	=78
1r	1B-]	2d]	1b-
.	.	2B-	.
1GG	1G	2d	1b-
.	.	2e	.
=79	=79	=79	=79
1D	1F	2f	1a
.	.	4e	.
.	.	4d	.
2r	1F	2c	1a
2D	.	2d	.
=80	=80	=80	=80
2.E-Xi	1G	1B-	1g
4F	.	.	.
1G	1B-	2r	1g
.	.	2B-	.
=81	=81	=81	=81
1F	1A	1c	1a
1E-Xi	1G	2r	2b-
.	.	2c	[2g
=82	=82	=82	=82
2D	0A	2d	2g]
2C	.	2e-Xi	4f#Xi
.	.	.	4e
1D	.	1d	1f#Xi
=83	=83	=83	=83
0GGl	0Gl	0dl	0gl
==	==	==	==
*-	*-	*-	*-
!!!RDF**kern: l=long note in original notation
!!!system-decoration: s1,s2,s3,s4
!!!RDF**kern: i = editorial accidental
!!!ENC: Jesse Rodin 21 Oct 2020
!!!END: 2020/10/21
!!!EED: Jesse Rodin
!!!EEV: 2021/03/25
!!attribution-level@Jos: 4a (the rest [double question mark])
!!!ONB: Translated from MusicXML and edited on 2021/03/25 by Craig Sapp
!!muse2ps: C^@{COA}??\n@{SCT} (unicum in Dresden 1/D/505)^i2I150v85,85,85,150c210
